X: 394
T: Bill's Dream
C:Bill Monroe
B: jims roots
M:2/4
L:1/8
Q: 1/4=100
K:G
V:1 
dc || "G"B2G2 B2G2 | Bd2 ed2 gf | "C"e2c2 e2c2 | eg2a gfe2 |
"G"Bd2e dcBc |d3e dcB2 | "D"([A4F]([A4F]) | "D7"[A6F]) dc ||
"G"B2G2 B2G2 | Bd2 ed2 gf | "C"e2c2 e2c2 | eg2a gfee |
"G"Bd2e dcAB | "D"cBAG FDEF | "G"([B,4G][B,3G])A | [B,6G] gf ||
"C"e2c2 e2c2 | eg2a gfeB | "G"d3e dcBc | "D"d6 gf|
"C"e2c2 e2c2 | eg2a gfeB | "G"d3e dcB2 | "D"[A6F]dc||
"G"B2G2 B2G2 |Bd2 ed2 gf | "C"e2c2 e2c2 | eg2a gfeB |
"G"(d2 d)e dcAB | "D"cBAG FDEF | "G"(G4 G)FGA | G6  |]
% abcbook-tune_id 6298c245f05affde329c55dd


% abcbook-boost 0
% abcbook-tablature 
% abcbook-transpose 
% abcbook-lastupdated 1654178373338
% abcbook-soundfonts 
% abcbook-repeats 1


